icons/svg/star-half.svg

﻿<?xml version="1.0" encoding="utf-8"?>
<!DOCTYPE svg PUBLIC "-//W3C//DTD SVG 1.1//EN" "http://www.w3.org/Graphics/SVG/1.1/DTD/svg11.dtd">
<svg xmlns="http://www.w3.org/2000/svg" xmlns:xlink="http://www.w3.org/1999/xlink" version="1.1" baseProfile="full" width="24" height="24" viewBox="0 0 24.00 24.00" enable-background="new 0 0 24.00 24.00" xml:space="preserve">
	<path fill="#000000" fill-opacity="1" stroke-width="0.2" stroke-linejoin="round" d="M 11.9994,15.8944L 11.9994,6.59337L 13.7094,10.6294L 18.0894,11.0054L 14.7674,13.8834L 15.7624,18.1644M 21.9994,9.74237L 14.8084,9.12537L 11.9994,2.49837L 9.1904,9.12537L 1.9994,9.74237L 7.4544,14.4684L 5.8194,21.4984L 11.9994,17.7704L 18.1794,21.4984L 16.5444,14.4684L 21.9994,9.74237 Z "/>
</svg>

<svg xmlns="http://www.w3.org/2000/svg" version="1.1" baseProfile="full" width="24" height="24" viewBox="0 0 24.00 24.00" xml:space="preserve"><path fill="#000" fill-opacity="1" stroke-width=".2" stroke-linejoin="round" d="M12 15.894v-9.3l1.71 4.035 4.38.375-3.323 2.878.995 4.28M22 9.744l-7.192-.618-2.81-6.627L9.19 9.125 2 9.742l5.454 4.726-1.635 7.03L12 17.77l6.18 3.728-1.636-7.03L22 9.742z"/></svg>
